X:1411
T:Jimmy's Fancy
P:Lord Seaforth
C:Traditional (Surenne)
R:Strathspey (8x32)
B:RSCDS 14-11
Z:Anselm Lingnau <anselm@strathspey.org>
M:4/4
L:1/8
K:A
c/|"A"A<E E>F A>B c>A|"E7"d>B "A"c>A "D"F3 B|\
   "A"A<E E>F A>B c>f|e<c "E7"B>c "A"A>>c|
   "A"A<E E>F A>B c>A|"E7"d>B "A"c>A "D"F3 B|\
   "A"A<E E>F A>B c>f|e<c "E7"B>c "A"A7/2||
a/|"D"f/g/a "A"e>a c>a e>c|"E7"d>B "A"c>A "D"F7/2 a/|\
   "D"f/g/a "A"e>a c>a e>c|"E7"d>B e>c "A"A7/2 a/|
   "D"f>a "A/C#"e>a "Bm"d>b "A"c>a|"E7"d>B "A"c>A "D"F7/2 a/|\
   "A"A<E E>F A>B c>f|e>c "E7"B>c "A"A7/2|]
